hosted/assets/icon/widgets/dark-mode/plotly-real-time.svg

<svg width="50" height="50" viewBox="0 0 50 50" fill="none" xmlns="http://www.w3.org/2000/svg">
<circle cx="28.5" cy="40.5" r="2.5" fill="#4A6BB7"/>
<circle cx="16.5" cy="31.5" r="2.5" fill="#4A6BB7"/>
<circle cx="4.5" cy="45.5" r="2.5" fill="#4A6BB7"/>
<path d="M27.5789 5C21.2105 5 16 10.1667 16 16.4815C16 22.7963 21.2105 27.963 27.5789 27.963C33.9474 27.963 39.1579 22.7963 39.1579 16.4815C39.1579 10.1667 33.9474 5 27.5789 5ZM27.5789 7.2963C32.6737 7.2963 36.8421 11.4296 36.8421 16.4815C36.8421 21.5333 32.6737 25.6667 27.5789 25.6667C22.4842 25.6667 18.3158 21.5333 18.3158 16.4815C18.3158 11.4296 22.4842 7.2963 27.5789 7.2963Z" fill="white"/>
<path d="M25.5 20V13L32 16.5L25.5 20Z" fill="#4A6BB7"/>
<path fill-rule="evenodd" clip-rule="evenodd" d="M30.1577 16.463L26.4077 14.2979L26.4077 18.628L30.1577 16.463ZM32.6577 17.329C33.3244 16.9441 33.3244 15.9818 32.6577 15.5969L25.9077 11.6998C25.241 11.3149 24.4077 11.7961 24.4077 12.5659L24.4077 20.3601C24.4077 21.1299 25.241 21.611 25.9077 21.2261L32.6577 17.329Z" fill="white"/>
<path fill-rule="evenodd" clip-rule="evenodd" d="M47.6568 19.8284C48.2091 19.8284 48.6568 20.2761 48.6568 20.8284V26.4853C48.6568 27.0376 48.2091 27.4853 47.6568 27.4853C47.1045 27.4853 46.6568 27.0376 46.6568 26.4853V23.3217L31.731 39.152C31.9043 39.5669 32 40.0223 32 40.5C32 42.433 30.433 44 28.5 44C26.567 44 25 42.433 25 40.5C25 40.1771 25.0437 39.8644 25.1256 39.5675L18.7958 34.142C18.1812 34.6764 17.3784 35 16.5 35C16.0461 35 15.6125 34.9136 15.2145 34.7564L7.36064 43.4829C7.76339 44.053 8 44.7489 8 45.5C8 47.433 6.433 49 4.5 49C2.567 49 1 47.433 1 45.5C1 43.567 2.567 42 4.5 42C4.95379 42 5.38741 42.0864 5.78532 42.2435L13.6392 33.517C13.2366 32.9469 13 32.2511 13 31.5C13 29.567 14.567 28 16.5 28C18.433 28 20 29.567 20 31.5C20 31.8229 19.9563 32.1355 19.8744 32.4324L26.2043 37.858C26.8189 37.3236 27.6216 37 28.5 37C29.2224 37 29.8938 37.2189 30.4513 37.594L45.3159 21.8284H41.9999C41.4477 21.8284 40.9999 21.3807 40.9999 20.8284C40.9999 20.2761 41.4477 19.8284 41.9999 19.8284H47.6568ZM16.5 33C17.3284 33 18 32.3284 18 31.5C18 30.6716 17.3284 30 16.5 30C15.6716 30 15 30.6716 15 31.5C15 32.3284 15.6716 33 16.5 33ZM4.5 47C5.32843 47 6 46.3284 6 45.5C6 44.6716 5.32843 44 4.5 44C3.67157 44 3 44.6716 3 45.5C3 46.3284 3.67157 47 4.5 47ZM30 40.5C30 41.3284 29.3284 42 28.5 42C27.6716 42 27 41.3284 27 40.5C27 39.6716 27.6716 39 28.5 39C29.3284 39 30 39.6716 30 40.5Z" fill="white"/>
</svg>

<svg width="50" height="50" fill="none" xmlns="http://www.w3.org/2000/svg"><circle cx="28.5" cy="40.5" r="2.5" fill="#4A6BB7"/><circle cx="16.5" cy="31.5" r="2.5" fill="#4A6BB7"/><circle cx="4.5" cy="45.5" r="2.5" fill="#4A6BB7"/><path d="M27.579 5C21.21 5 16 10.167 16 16.482c0 6.314 5.21 11.481 11.579 11.481 6.368 0 11.579-5.167 11.579-11.482C39.158 10.168 33.948 5 27.578 5zm0 2.296c5.095 0 9.263 4.134 9.263 9.186 0 5.051-4.168 9.185-9.263 9.185s-9.263-4.134-9.263-9.186c0-5.051 4.168-9.185 9.263-9.185z" fill="#fff"/><path d="M25.5 20v-7l6.5 3.5-6.5 3.5z" fill="#4A6BB7"/><path fill-rule="evenodd" clip-rule="evenodd" d="M30.158 16.463l-3.75-2.165v4.33l3.75-2.165zm2.5.866a1 1 0 000-1.732l-6.75-3.897a1 1 0 00-1.5.866v7.794a1 1 0 001.5.866l6.75-3.897zm14.999 2.499a1 1 0 011 1v5.657a1 1 0 11-2 0v-3.163L31.73 39.152a3.5 3.5 0 11-6.605.416l-6.33-5.426A3.487 3.487 0 0116.5 35c-.454 0-.887-.086-1.286-.244l-7.853 8.727a3.5 3.5 0 11-1.575-1.24l7.853-8.726a3.5 3.5 0 116.235-1.085l6.33 5.426A3.487 3.487 0 0128.5 37c.722 0 1.394.219 1.951.594l14.865-15.766H42a1 1 0 010-2h5.657zM16.5 33a1.5 1.5 0 100-3 1.5 1.5 0 000 3zm-12 14a1.5 1.5 0 100-3 1.5 1.5 0 000 3zM30 40.5a1.5 1.5 0 11-3 0 1.5 1.5 0 013 0z" fill="#fff"/></svg>
